X: 35275
T: Rose In The Heather, The
R: jig
M: 6/8
K: Dmajor
|:FAF EFE|DFA BAF|ABd ede|fdB AFE|
FAF EFE|DFA BAF|AdB AFE|FDD D3:|
|:fdB ABd|faa afd|gfg fed|Bee efg|
fdB ABd|faa afa|baf gfe fdd d3:|

